X: 19014
T: Deuks Dang o'er My Daddy
T: Just As I Was In The Morning
M:6/8
L:1/8
R:Jig
B:RSCDS 19-3
%--------------------
K:D % 2 sharps
|: f/e/|"D"d2A F>ED|"A7"E>FE c2B/c/|"D"d2A "A"F2E|"D"F>DD D2:| !
A|"D"d>cd B>cd|"E"e>fd "A"c>BA|"D"d>cd "A7"e>fg|"D"f>dd d2 e/f/ | !
"G"g>fg B>cd|"E"e>fd "A"c>BA|"D"d2A "E7"F2E|"D"F>DD D2 ||
% <A name="D1X048"></A>
%%center Book19/19031-Deuks_Dang_oer_My_Daddy-JC.abc

%%sep 1 1 500
%%sep 1 1 500

